icons/themes/default/code.svg

<svg viewBox="0 0 16 16" fill="none" xmlns="http://www.w3.org/2000/svg">
<path fill-rule="evenodd" clip-rule="evenodd" d="M9.82671 2.56656C9.89119 2.29805 9.72578 2.02811 9.45727 1.96364C9.18876 1.89917 8.91882 2.06457 8.85435 2.33309L6.18435 13.4531C6.11988 13.7216 6.28529 13.9915 6.5538 14.056C6.82231 14.1205 7.09224 13.9551 7.15671 13.6866L9.82671 2.56656ZM5.02353 4.5357C5.21911 4.73065 5.21962 5.04723 5.02467 5.24281L2.26652 8.00982L5.02467 10.7768C5.21962 10.9724 5.21911 11.289 5.02353 11.4839C4.82796 11.6789 4.51137 11.6784 4.31643 11.4828L1.20643 8.36281C1.01192 8.16768 1.01192 7.85197 1.20643 7.65684L4.31643 4.53684C4.51137 4.34126 4.82796 4.34075 5.02353 4.5357ZM10.9975 4.5357C11.1931 4.34075 11.5097 4.34126 11.7046 4.53684L14.8146 7.65684C15.0092 7.85197 15.0092 8.16768 14.8146 8.36281L11.7046 11.4828C11.5097 11.6784 11.1931 11.6789 10.9975 11.4839C10.802 11.289 10.8015 10.9724 10.9964 10.7768L13.7545 8.00982L10.9964 5.24281C10.8015 5.04723 10.802 4.73065 10.9975 4.5357Z" fill="currentColor"/>
</svg>

<svg xmlns="http://www.w3.org/2000/svg" fill="none" viewBox="0 0 16 16">
  <path fill="currentColor" fill-rule="evenodd" d="M9.827 2.567a.5.5 0 1 0-.973-.234l-2.67 11.12a.5.5 0 0 0 .973.234l2.67-11.12ZM5.024 4.536a.5.5 0 0 1 0 .707L2.268 8.01l2.758 2.767a.5.5 0 0 1-.709.706l-3.11-3.12a.5.5 0 0 1 0-.706l3.11-3.12a.5.5 0 0 1 .708-.001Zm5.974 0a.5.5 0 0 1 .707 0l3.11 3.12a.5.5 0 0 1 0 .707l-3.11 3.12a.5.5 0 1 1-.709-.706l2.758-2.767-2.758-2.767a.5.5 0 0 1 .002-.707Z" clip-rule="evenodd"/>
</svg>
